build/img/step1.svg

<svg width="133" height="143" viewBox="0 0 133 143" fill="none" xmlns="http://www.w3.org/2000/svg">
<path fill-rule="evenodd" clip-rule="evenodd" d="M66.6134 3.5C34.6725 3.5 8.28576 26.92 4.00829 57.3181H0.979492C5.2776 25.2353 33.0375 0.5 66.6134 0.5C86.3198 0.5 104.023 9.02072 116.154 22.5467H112.151V22.6559C100.654 10.8486 84.5052 3.5 66.6134 3.5ZM119.678 32.0298C124.304 39.0812 127.533 47.1121 128.975 55.7375H132.016C130.652 47.1689 127.61 39.1533 123.233 32.0298H119.678ZM1.21109 76.2843H4.2516C4.88962 80.0996 5.87706 83.7986 7.18039 87.3479H3.99259C2.75421 83.789 1.81698 80.0912 1.21109 76.2843ZM9.05317 98.4115C20.452 118.192 41.9656 131.522 66.6134 131.522C98.5153 131.522 125.167 109.191 131.432 79.4453H128.361C122.147 107.503 96.8723 128.522 66.6134 128.522C43.6902 128.522 23.6277 116.459 12.5454 98.4115H9.05317Z" fill="#F7D473"/>
<circle cx="97.1572" cy="123.977" r="19" fill="#F7D473"/>
<path d="M96.602 128.98V119.88L97.4 120.706H94.53V119.18H98.422V128.98H96.602Z" fill="#111111"/>
<g clip-path="url(#clip0_335_3)">
<path d="M90.3092 83.75C89.9759 83.75 89.6839 83.8753 89.4332 84.126C89.1825 84.3767 89.0572 84.6893 89.0572 85.064V94.314C89.0572 94.6473 88.9319 94.9393 88.6812 95.19C88.4305 95.4407 88.1179 95.566 87.7432 95.566H42.3052C41.9719 95.566 41.6799 95.4513 41.4292 95.222C41.1785 94.9927 41.0532 94.6907 41.0532 94.316V37.816C41.0532 37.4827 41.1679 37.1907 41.3972 36.94C41.6265 36.6893 41.9285 36.564 42.3032 36.564H87.8652C88.1985 36.564 88.5005 36.6787 88.7712 36.908C89.0419 37.1373 89.1772 37.4393 89.1772 37.814V51.376C89.1772 51.7093 89.2919 52.0113 89.5212 52.282C89.7505 52.5527 90.0525 52.688 90.4272 52.688C90.8019 52.688 91.1039 52.5627 91.3332 52.312C91.5625 52.0613 91.6772 51.7487 91.6772 51.374V37.812C91.6772 36.812 91.3125 35.9267 90.5832 35.156C89.8539 34.3853 88.9479 34 87.8652 34H42.3032C41.2192 34 40.3132 34.3647 39.5852 35.094C38.8572 35.8233 38.4925 36.7293 38.4912 37.812V94.312C38.4912 95.312 38.8559 96.1973 39.5852 96.968C40.3145 97.7387 41.2205 98.124 42.3032 98.124H87.8652C88.9065 98.124 89.8025 97.7593 90.5532 97.03C91.3039 96.3007 91.6792 95.3947 91.6792 94.312V85.062C91.6379 84.7287 91.4819 84.4267 91.2112 84.156C90.9405 83.8853 90.6385 83.75 90.3052 83.75H90.3092ZM76.4352 52.312C76.4352 49.104 75.3099 46.3747 73.0592 44.124C70.8085 41.8733 68.0999 40.748 64.9332 40.748C61.7252 40.748 58.9959 41.8733 56.7452 44.124C54.4945 46.3747 53.3692 49.104 53.3692 52.312C53.3692 53.9373 53.6919 55.4687 54.3372 56.906C54.9825 58.3433 55.8472 59.604 56.9312 60.688L57.0572 60.814C58.0572 61.7727 59.2345 62.512 60.5892 63.032C61.9439 63.552 63.3499 63.8127 64.8072 63.814C66.2645 63.8153 67.6605 63.5547 68.9952 63.032C70.3299 62.5093 71.5172 61.77 72.5572 60.814L72.6832 60.688C73.8499 59.604 74.7665 58.3433 75.4332 56.906C76.0999 55.4687 76.4352 53.9373 76.4352 52.312ZM65.0592 43.25C67.5179 43.25 69.6325 44.1353 71.4032 45.906C73.1739 47.6767 74.0592 49.812 74.0592 52.312C74.0592 53.312 73.9032 54.26 73.5912 55.156C73.2792 56.052 72.8312 56.8747 72.2472 57.624C71.8299 56.916 71.3092 56.312 70.6852 55.812C70.0612 55.312 69.3739 54.8953 68.6232 54.562C68.9152 54.1873 69.1339 53.76 69.2792 53.28C69.4245 52.8 69.4972 52.2893 69.4972 51.748V50.998C69.4972 49.7473 69.0599 48.6953 68.1852 47.842C67.3105 46.9887 66.2685 46.5613 65.0592 46.56C63.8499 46.5587 62.8079 46.996 61.9332 47.872C61.0585 48.748 60.6212 49.79 60.6212 50.998V51.748C60.6212 52.2893 60.7045 52.8 60.8712 53.28C61.0379 53.76 61.2465 54.1873 61.4972 54.562C60.7052 54.8953 59.9965 55.3327 59.3712 55.874C58.7459 56.4153 58.2252 56.9987 57.8092 57.624C57.2252 56.8733 56.7772 56.0507 56.4652 55.156C56.1532 54.2613 55.9972 53.3133 55.9972 52.312C55.9972 49.812 56.8825 47.6767 58.6532 45.906C60.4239 44.1353 62.5592 43.25 65.0592 43.25ZM62.9972 51.75V51C62.9972 50.4587 63.1952 49.99 63.5912 49.594C63.9872 49.198 64.4765 49 65.0592 49C65.6005 49 66.0692 49.198 66.4652 49.594C66.8612 49.99 67.0592 50.4587 67.0592 51V51.75C67.0592 52.334 66.8612 52.8233 66.4652 53.218C66.0692 53.6127 65.6005 53.8107 65.0592 53.812C64.4752 53.812 63.9859 53.614 63.5912 53.218C63.1965 52.822 62.9985 52.3327 62.9972 51.75ZM59.5592 59.376C60.1432 58.4173 60.9139 57.6567 61.8712 57.094C62.8285 56.5313 63.8912 56.25 65.0592 56.25C66.1845 56.25 67.2265 56.5313 68.1852 57.094C69.1439 57.6567 69.9145 58.4173 70.4972 59.376C69.7465 59.96 68.9025 60.408 67.9652 60.72C67.0279 61.032 66.0592 61.188 65.0592 61.188C64.0179 61.188 63.0385 61.032 62.1212 60.72C61.2039 60.408 60.3499 59.96 59.5592 59.376ZM71.7472 88.75H65.0592C64.7259 88.75 64.4239 88.8647 64.1532 89.094C63.8825 89.3233 63.7472 89.6253 63.7472 90C63.7472 90.3747 63.8619 90.6767 64.0912 90.906C64.3205 91.1353 64.6432 91.25 65.0592 91.25H71.7472C72.0805 91.25 72.3825 91.1353 72.6532 90.906C72.9239 90.6767 73.0592 90.3747 73.0592 90C73.0592 89.6253 72.9239 89.3233 72.6532 89.094C72.3825 88.8647 72.0805 88.75 71.7472 88.75ZM71.7472 81.75H53.9972C53.6639 81.75 53.3719 81.8647 53.1212 82.094C52.8705 82.3233 52.7452 82.6253 52.7452 83C52.7452 83.3333 52.8599 83.6353 53.0892 83.906C53.3185 84.1767 53.6205 84.312 53.9952 84.312H71.7452C72.0785 84.312 72.3805 84.1867 72.6512 83.936C72.9219 83.6853 73.0572 83.3727 73.0572 82.998C73.0572 82.706 72.9219 82.4247 72.6512 82.154C72.3805 81.8833 72.0785 81.748 71.7452 81.748L71.7472 81.75ZM71.7472 74.75H53.9972C53.6639 74.75 53.3719 74.8647 53.1212 75.094C52.8705 75.3233 52.7452 75.646 52.7452 76.062C52.7452 76.4367 52.8599 76.7387 53.0892 76.968C53.3185 77.1973 53.6205 77.312 53.9952 77.312H71.7452C72.0785 77.312 72.3805 77.1973 72.6512 76.968C72.9219 76.7387 73.0572 76.4367 73.0572 76.062C73.0572 75.6447 72.9219 75.322 72.6512 75.094C72.3805 74.866 72.0805 74.7513 71.7472 74.75ZM49.5592 68.188C49.4339 68.0213 49.2985 67.9067 49.1532 67.844C49.0079 67.7813 48.8519 67.75 48.6852 67.75C48.4772 67.75 48.2999 67.7813 48.1532 67.844C48.0065 67.9067 47.8712 68.0213 47.7472 68.188C47.6219 68.3133 47.5279 68.4387 47.4652 68.564C47.4025 68.6893 47.3712 68.856 47.3712 69.064C47.3712 69.2307 47.4025 69.3867 47.4652 69.532C47.5279 69.6773 47.6219 69.8127 47.7472 69.938C47.8725 70.0633 48.0079 70.1573 48.1532 70.22C48.2985 70.2827 48.4759 70.314 48.6852 70.314C48.8519 70.314 49.0079 70.2827 49.1532 70.22C49.2985 70.1573 49.4339 70.0633 49.5592 69.938C49.6845 69.8127 49.7785 69.6667 49.8412 69.5C49.9039 69.3333 49.9352 69.1873 49.9352 69.062C49.9352 68.854 49.9039 68.6873 49.8412 68.562C49.7785 68.4367 49.6845 68.3133 49.5592 68.188ZM49.5592 75.126C49.4339 75.0007 49.2985 74.9067 49.1532 74.844C49.0079 74.7813 48.8519 74.75 48.6852 74.75C48.4772 74.75 48.2999 74.7813 48.1532 74.844C48.0065 74.9067 47.8712 75.0007 47.7472 75.126C47.6232 75.2513 47.5292 75.3867 47.4652 75.532C47.4012 75.6773 47.3699 75.8547 47.3712 76.064C47.3712 76.2307 47.4025 76.3867 47.4652 76.532C47.5279 76.6773 47.6219 76.8127 47.7472 76.938C47.8725 77.0633 48.0079 77.1573 48.1532 77.22C48.2985 77.2827 48.4759 77.314 48.6852 77.314C48.8519 77.314 49.0079 77.2827 49.1532 77.22C49.2985 77.1573 49.4339 77.0633 49.5592 76.938C49.6845 76.8127 49.7785 76.6773 49.8412 76.532C49.9039 76.3867 49.9352 76.2307 49.9352 76.064C49.9352 75.856 49.9039 75.6787 49.8412 75.532C49.7785 75.3853 49.6845 75.25 49.5592 75.126ZM48.6852 81.75C48.4772 81.75 48.2999 81.7813 48.1532 81.844C48.0065 81.9067 47.8712 82.0007 47.7472 82.126C47.6232 82.2513 47.5292 82.3973 47.4652 82.564C47.4012 82.7307 47.3699 82.8767 47.3712 83.002C47.3712 83.21 47.4025 83.3767 47.4652 83.502C47.5279 83.6273 47.6219 83.7527 47.7472 83.878C47.8725 84.0447 48.0079 84.1593 48.1532 84.222C48.2985 84.2847 48.4759 84.316 48.6852 84.316C48.8519 84.316 49.0079 84.2847 49.1532 84.222C49.2985 84.1593 49.4339 84.0447 49.5592 83.878C49.6845 83.7527 49.7785 83.6273 49.8412 83.502C49.9039 83.3767 49.9352 83.21 49.9352 83.002C49.9352 82.8353 49.9039 82.6793 49.8412 82.534C49.7785 82.3887 49.6845 82.2533 49.5592 82.128C49.4339 82.0027 49.2985 81.9087 49.1532 81.846C49.0079 81.7833 48.8519 81.75 48.6852 81.75ZM71.7472 67.75H53.9972C53.6639 67.75 53.3719 67.8753 53.1212 68.126C52.8705 68.3767 52.7452 68.6893 52.7452 69.064C52.7452 69.356 52.8599 69.6373 53.0892 69.908C53.3185 70.1787 53.6205 70.314 53.9952 70.314H71.7452C72.0785 70.314 72.3805 70.1993 72.6512 69.97C72.9219 69.7407 73.0572 69.4387 73.0572 69.064C73.0572 68.6893 72.9219 68.3767 72.6512 68.126C72.3805 67.8753 72.0805 67.75 71.7472 67.75ZM99.9352 50.25C99.3099 49.8753 98.6639 49.646 97.9972 49.562C97.3305 49.478 96.6639 49.5407 95.9972 49.75C95.3305 49.9593 94.7159 50.272 94.1532 50.688C93.5905 51.104 93.1632 51.604 92.8712 52.188L76.9952 79.438C76.9112 79.522 76.8692 79.5947 76.8692 79.656V79.938L75.6812 89.876C75.6812 90.1267 75.7232 90.366 75.8072 90.594C75.8912 90.822 76.0579 90.9993 76.3072 91.126C76.4739 91.21 76.5992 91.252 76.6832 91.252H76.9952C76.9952 91.252 77.1205 91.2313 77.3712 91.19C77.6219 91.1487 77.7472 91.086 77.7472 91.002L85.7472 85.064C85.7885 84.98 85.8405 84.9073 85.9032 84.846C85.9659 84.7847 86.0385 84.7327 86.1212 84.69L101.871 57.378C102.579 56.17 102.735 54.868 102.339 53.472C101.943 52.076 101.141 51.0033 99.9332 50.254L99.9352 50.25ZM79.1232 82.126L82.8112 84.188L78.4992 87.314L79.1232 82.126ZM84.6232 82.376L79.7472 79.688L92.3092 57.876L97.1852 60.688L84.6232 82.376ZM99.6852 56.25L98.4352 58.376L93.6232 55.564L94.8732 53.438C95.0812 53.1047 95.3312 52.8233 95.6232 52.594C95.9152 52.3647 96.2279 52.2293 96.5612 52.188C96.9359 52.104 97.2799 52.0727 97.5932 52.094C97.9065 52.1153 98.2292 52.23 98.5612 52.438C98.8945 52.6047 99.1759 52.834 99.4052 53.126C99.6345 53.418 99.7699 53.7307 99.8112 54.064C99.9365 54.4387 99.9992 54.814 99.9992 55.19C99.9992 55.566 99.8952 55.92 99.6872 56.252L99.6852 56.25Z" fill="white"/>
</g>
<defs>
<clipPath id="clip0_335_3">
<rect width="64" height="64" fill="white" transform="translate(38.4971 34)"/>
</clipPath>
</defs>
</svg>

<svg xmlns="http://www.w3.org/2000/svg" width="133" height="143" fill="none"><path fill="#F7D473" fill-rule="evenodd" d="M66.613 3.5c-31.94 0-58.327 23.42-62.605 53.818H.98C5.278 25.235 33.038.5 66.613.5c19.707 0 37.41 8.52 49.541 22.047h-4.003v.109C100.654 10.849 84.505 3.5 66.613 3.5Zm53.065 28.53a61.741 61.741 0 0 1 9.297 23.707h3.041a64.653 64.653 0 0 0-8.783-23.707h-3.555ZM1.211 76.284h3.04a61.519 61.519 0 0 0 2.93 11.064H3.992A64.499 64.499 0 0 1 1.21 76.284Zm7.842 22.127c11.399 19.781 32.913 33.111 57.56 33.111 31.902 0 58.554-22.331 64.819-52.077h-3.071c-6.214 28.058-31.489 49.077-61.748 49.077-22.923 0-42.985-12.063-54.068-30.11H9.053Z" clip-rule="evenodd"/><circle cx="97.157" cy="123.977" r="19" fill="#F7D473"/><path fill="#111" d="M96.602 128.98v-9.1l.798.826h-2.87v-1.526h3.892v9.8h-1.82Z"/><g clip-path="url(#a)"><path fill="#fff" d="M90.31 83.75a1.2 1.2 0 0 0-.877.376c-.25.25-.376.563-.376.938v9.25a1.2 1.2 0 0 1-.376.876c-.25.25-.563.376-.938.376H42.305c-.333 0-.625-.115-.876-.344-.25-.23-.376-.531-.376-.906v-56.5c0-.333.115-.625.344-.876.23-.25.532-.376.906-.376h45.562c.334 0 .636.115.906.344.27.23.406.531.406.906v13.562c0 .333.115.635.344.906.23.27.531.406.906.406s.677-.125.906-.376c.23-.25.344-.563.344-.938V37.812c0-1-.365-1.885-1.094-2.656-.73-.77-1.635-1.156-2.718-1.156H42.303c-1.084 0-1.99.365-2.718 1.094-.728.73-1.093 1.635-1.094 2.718v56.5c0 1 .365 1.885 1.094 2.656.73.77 1.636 1.156 2.718 1.156h45.562c1.041 0 1.938-.365 2.688-1.094.75-.73 1.126-1.635 1.126-2.718v-9.25c-.041-.333-.197-.635-.468-.906-.27-.27-.573-.406-.906-.406h.004ZM76.434 52.312c0-3.208-1.125-5.937-3.376-8.188-2.25-2.25-4.96-3.376-8.126-3.376-3.208 0-5.937 1.125-8.188 3.376-2.25 2.25-3.376 4.98-3.376 8.188 0 1.625.323 3.157.968 4.594a12.588 12.588 0 0 0 2.594 3.782l.126.126c1 .959 2.177 1.698 3.532 2.218s2.76.78 4.218.782c1.457.001 2.853-.26 4.188-.782a11.307 11.307 0 0 0 3.562-2.218l.126-.126a12.021 12.021 0 0 0 2.75-3.782 10.787 10.787 0 0 0 1.002-4.594ZM65.06 43.25c2.459 0 4.573.885 6.344 2.656 1.77 1.77 2.656 3.906 2.656 6.406 0 1-.156 1.948-.468 2.844a8.576 8.576 0 0 1-1.344 2.468 6.58 6.58 0 0 0-1.562-1.812 9.346 9.346 0 0 0-2.062-1.25c.292-.375.51-.802.656-1.282.145-.48.218-.99.218-1.532v-.75c0-1.25-.437-2.303-1.312-3.156-.874-.853-1.916-1.28-3.126-1.282-1.21-.001-2.251.436-3.126 1.312-.874.876-1.312 1.918-1.312 3.126v.75c0 .541.084 1.052.25 1.532.167.48.375.907.626 1.282-.792.333-1.5.77-2.126 1.312a8.683 8.683 0 0 0-1.562 1.75 8.612 8.612 0 0 1-1.344-2.468 8.575 8.575 0 0 1-.468-2.844c0-2.5.886-4.635 2.656-6.406 1.77-1.77 3.906-2.656 6.406-2.656Zm-2.062 8.5V51c0-.541.198-1.01.594-1.406.396-.396.886-.594 1.468-.594.541 0 1.01.198 1.406.594.396.396.594.865.594 1.406v.75c0 .584-.198 1.073-.594 1.468a1.932 1.932 0 0 1-1.406.594c-.584 0-1.073-.198-1.468-.594-.395-.396-.593-.885-.594-1.468Zm-3.438 7.626a6.567 6.567 0 0 1 2.312-2.282c.957-.563 2.02-.844 3.188-.844 1.126 0 2.168.281 3.126.844a6.545 6.545 0 0 1 2.312 2.282 8.418 8.418 0 0 1-2.532 1.344 9.141 9.141 0 0 1-2.906.468 9.064 9.064 0 0 1-2.938-.468 9.366 9.366 0 0 1-2.562-1.344ZM71.747 88.75H65.06c-.333 0-.635.115-.906.344a1.13 1.13 0 0 0-.406.906c0 .375.115.677.344.906.23.23.552.344.968.344h6.688c.334 0 .635-.115.906-.344.27-.23.406-.531.406-.906a1.13 1.13 0 0 0-.406-.906 1.367 1.367 0 0 0-.906-.344Zm0-7h-17.75c-.333 0-.625.115-.876.344-.25.23-.376.531-.376.906 0 .333.115.635.344.906.23.27.532.406.906.406h17.75c.334 0 .635-.125.906-.376.27-.25.406-.563.406-.938 0-.292-.135-.573-.406-.844-.27-.27-.572-.406-.906-.406l.002.002Zm0-7h-17.75c-.333 0-.625.115-.876.344-.25.23-.376.552-.376.968 0 .375.115.677.344.906.23.23.532.344.906.344h17.75c.334 0 .635-.115.906-.344.27-.23.406-.531.406-.906 0-.417-.135-.74-.406-.968a1.375 1.375 0 0 0-.904-.344ZM49.56 68.188a1.035 1.035 0 0 0-.406-.344 1.168 1.168 0 0 0-.468-.094 1.35 1.35 0 0 0-.532.094 1.017 1.017 0 0 0-.406.344c-.125.125-.22.25-.282.376a1.125 1.125 0 0 0-.094.5c0 .167.032.323.094.468.063.145.157.28.282.406.126.125.26.22.406.282.145.063.323.094.532.094.167 0 .323-.031.468-.094a1.307 1.307 0 0 0 .688-.72c.063-.167.094-.313.094-.438 0-.208-.031-.375-.094-.5a1.467 1.467 0 0 0-.282-.374Zm0 6.938a1.307 1.307 0 0 0-.406-.282 1.168 1.168 0 0 0-.468-.094 1.35 1.35 0 0 0-.532.094 1.277 1.277 0 0 0-.406.282c-.124.125-.218.26-.282.406a1.297 1.297 0 0 0-.094.532c0 .167.032.323.094.468.063.145.157.28.282.406.126.125.26.22.406.282.145.063.323.094.532.094.167 0 .323-.031.468-.094.145-.063.28-.157.406-.282.126-.125.22-.26.282-.406.063-.145.094-.301.094-.468a1.35 1.35 0 0 0-.094-.532 1.277 1.277 0 0 0-.282-.406Zm-.874 6.624a1.35 1.35 0 0 0-.532.094 1.277 1.277 0 0 0-.406.282 1.255 1.255 0 0 0-.282.438 1.213 1.213 0 0 0-.094.438c0 .208.032.375.094.5.063.125.157.25.282.376.126.167.26.281.406.344.145.063.323.094.532.094.167 0 .323-.031.468-.094.145-.063.28-.177.406-.344.126-.125.22-.25.282-.376.063-.125.094-.292.094-.5 0-.167-.031-.323-.094-.468a1.307 1.307 0 0 0-.282-.406 1.307 1.307 0 0 0-.406-.282 1.17 1.17 0 0 0-.468-.096Zm23.062-14h-17.75a1.2 1.2 0 0 0-.876.376c-.25.25-.376.563-.376.938 0 .292.115.573.344.844.23.27.532.406.906.406h17.75c.334 0 .635-.115.906-.344.27-.23.406-.531.406-.906s-.135-.687-.406-.938c-.27-.25-.57-.376-.904-.376Zm28.188-17.5a4.95 4.95 0 0 0-1.938-.688 4.66 4.66 0 0 0-2 .188 6.21 6.21 0 0 0-1.844.938c-.563.416-.99.916-1.282 1.5l-15.876 27.25c-.084.084-.126.157-.126.218v.282l-1.188 9.938c0 .25.042.49.126.718.084.228.25.405.5.532.167.084.292.126.376.126h.312l.376-.062c.25-.041.376-.104.376-.188l8-5.938a.788.788 0 0 1 .156-.218.9.9 0 0 1 .218-.156l15.75-27.312c.708-1.208.864-2.51.468-3.906-.396-1.396-1.198-2.469-2.406-3.218l.002-.004ZM79.123 82.126l3.688 2.062-4.312 3.126.624-5.188Zm5.5.25-4.876-2.688L92.31 57.876l4.876 2.812-12.562 21.688ZM99.685 56.25l-1.25 2.126-4.812-2.812 1.25-2.126c.208-.333.458-.615.75-.844.292-.23.605-.365.938-.406a3.614 3.614 0 0 1 1.032-.094c.313.021.636.136.968.344.333.167.615.396.844.688.23.292.365.605.406.938.125.375.188.75.188 1.126 0 .376-.104.73-.312 1.062l-.002-.002Z"/></g><defs><clipPath id="a"><path fill="#fff" d="M38.497 34h64v64h-64z"/></clipPath></defs></svg>
